X: 2326
M: C
L: 1/8
K: D
(uAG) |:\
[1,3 FAdf edfd gfed cBAG :|\
[2,4 FAdf agec | d2d2 d2 :|
|: (ufg) |\
agfe d2(ga) | bagf e2(ef) |\
gfed cegb | agfe d2(AG) |\


